src/static/logos/turret.svg

<?xml version="1.0" encoding="UTF-8" standalone="no"?>
<svg width="256px" height="373px" viewBox="0 0 256 373" version="1.1" xmlns="http://www.w3.org/2000/svg" xmlns:xlink="http://www.w3.org/1999/xlink" preserveAspectRatio="xMidYMid">
    <g>
        <path d="M213.527273,302.545455 L195.490909,139.054545 L244.363636,104.145455 L244.363636,0 L197.818182,0 L197.818182,40.7272727 L162.909091,40.7272727 L162.909091,0 L93.0909091,0 L93.0909091,40.7272727 L58.1818182,40.7272727 L58.1818182,0 L11.6363636,0 L11.6363636,104.145455 L60.5090909,139.054545 L42.4727273,302.545455 L0,302.545455 L0,372.363636 L256,372.363636 L256,302.545455 L213.527273,302.545455 Z" fill="#05BED5"></path>
    </g>
</svg>

<svg width="256" height="373" xmlns="http://www.w3.org/2000/svg" preserveAspectRatio="xMidYMid"><path d="M213.527 302.545l-18.036-163.49 48.873-34.91V0h-46.546v40.727H162.91V0H93.091v40.727H58.18V0H11.637v104.145l48.873 34.91-18.036 163.49H0v69.819h256v-69.819h-42.473z" fill="#05BED5"/></svg>
